scalable/actions/share.svg

<svg height="16" width="16" xmlns="http://www.w3.org/2000/svg"><path d="m12.37819 1a2.6078431 2.6078431 0 0 0 -2.60785 2.60784 2.6078431 2.6078431 0 0 0 .0309.38775l-4.38014 2.1223a2.6078431 2.6078431 0 0 0 -1.79976-.72573 2.6078431 2.6078431 0 0 0 -2.60784 2.60784 2.6078431 2.6078431 0 0 0 2.60784 2.60784 2.6078431 2.6078431 0 0 0 1.81005-.73088l4.36128 2.19951a2.6078431 2.6078431 0 0 0 -.0223.31569 2.6078431 2.6078431 0 0 0 2.60785 2.60784 2.6078431 2.6078431 0 0 0 2.60784-2.60784 2.6078431 2.6078431 0 0 0 -2.60784-2.60785 2.6078431 2.6078431 0 0 0 -1.77917.70343l-4.38358-2.21666a2.6078431 2.6078431 0 0 0 .0137-.27108 2.6078431 2.6078431 0 0 0 -.0223-.31054l4.42133-2.15147a2.6078431 2.6078431 0 0 0 1.75.6777 2.6078431 2.6078431 0 0 0 2.60784-2.60785 2.6078431 2.6078431 0 0 0 -2.60784-2.60784z" fill="#bebebe"/></svg>

<?xml version="1.0" encoding="UTF-8" standalone="no"?>
<svg
   xmlns:dc="http://purl.org/dc/elements/1.1/"
   xmlns:cc="http://creativecommons.org/ns#"
   xmlns:rdf="http://www.w3.org/1999/02/22-rdf-syntax-ns#"
   xmlns:svg="http://www.w3.org/2000/svg"
   xmlns="http://www.w3.org/2000/svg"
   xmlns:sodipodi="http://sodipodi.sourceforge.net/DTD/sodipodi-0.dtd"
   xmlns:inkscape="http://www.inkscape.org/namespaces/inkscape"
   height="16"
   width="16"
   version="1.1"
   id="svg8"
   sodipodi:docname="share.svg"
   inkscape:version="0.92.2 2405546, 2018-03-11">
  <metadata
     id="metadata14">
    <rdf:RDF>
      <cc:Work
         rdf:about="">
        <dc:format>image/svg+xml</dc:format>
        <dc:type
           rdf:resource="http://purl.org/dc/dcmitype/StillImage" />
      </cc:Work>
    </rdf:RDF>
  </metadata>
  <defs
     id="defs12" />
  <sodipodi:namedview
     pagecolor="#ffffff"
     bordercolor="#666666"
     borderopacity="1"
     objecttolerance="10"
     gridtolerance="10"
     guidetolerance="10"
     inkscape:pageopacity="0"
     inkscape:pageshadow="2"
     inkscape:window-width="960"
     inkscape:window-height="1138"
     id="namedview10"
     showgrid="false"
     inkscape:zoom="14.75"
     inkscape:cx="11.762712"
     inkscape:cy="8"
     inkscape:window-x="1920"
     inkscape:window-y="38"
     inkscape:window-maximized="0"
     inkscape:current-layer="svg8" />
  <path
     style="fill:#bebebe"
     inkscape:connector-curvature="0"
     id="path4"
     d="M 12.37819,1 A 2.6078431,2.6078431 0 0 0 9.77034,3.60784 2.6078431,2.6078431 0 0 0 9.80124,3.99559 L 5.4211,6.11789 A 2.6078431,2.6078431 0 0 0 3.62134,5.39216 2.6078431,2.6078431 0 0 0 1.0135,8 2.6078431,2.6078431 0 0 0 3.62134,10.60784 2.6078431,2.6078431 0 0 0 5.43139,9.87696 l 4.36128,2.19951 A 2.6078431,2.6078431 0 0 0 9.77037,12.39216 2.6078431,2.6078431 0 0 0 12.37822,15 2.6078431,2.6078431 0 0 0 14.98606,12.39216 2.6078431,2.6078431 0 0 0 12.37822,9.78431 2.6078431,2.6078431 0 0 0 10.59905,10.48774 L 6.21547,8.27108 A 2.6078431,2.6078431 0 0 0 6.22917,8 2.6078431,2.6078431 0 0 0 6.20687,7.68946 L 10.6282,5.53799 a 2.6078431,2.6078431 0 0 0 1.75,0.6777 A 2.6078431,2.6078431 0 0 0 14.98604,3.60784 2.6078431,2.6078431 0 0 0 12.3782,1 Z" />
</svg>
